svg/nature/tree_4_line.svg

<?xml version="1.0" encoding="UTF-8"?>
<svg width="24px" height="24px" viewBox="0 0 24 24" version="1.1" xmlns="http://www.w3.org/2000/svg" xmlns:xlink="http://www.w3.org/1999/xlink">
    <title>tree_4_line</title>
    <g id="Icon" stroke="none" stroke-width="1" fill="none" fill-rule="evenodd">
        <g id="Nature" transform="translate(-816.000000, -2.000000)">
            <g id="tree_4_line" transform="translate(816.000000, 2.000000)">
                <path d="M24,0 L24,24 L0,24 L0,0 L24,0 Z M12.5935,23.2578 L12.5819,23.2595 L12.5109,23.295 L12.4919,23.2987 L12.4767,23.295 L12.4057,23.2595 C12.3958,23.2564 12.387,23.259 12.3821,23.2649 L12.378,23.2758 L12.3609,23.7031 L12.3659,23.7235 L12.3769,23.7357 L12.4805,23.8097 L12.4953,23.8136 L12.5071,23.8097 L12.6107,23.7357 L12.6233,23.7197 L12.6267,23.7031 L12.6096,23.2758 C12.6076,23.2657 12.601,23.2593 12.5935,23.2578 Z M12.8584,23.1453 L12.8445,23.1473 L12.6598,23.2397 L12.6499,23.2499 L12.6472,23.2611 L12.6651,23.6906 L12.6699,23.7034 L12.6784,23.7105 L12.8793,23.8032 C12.8914,23.8069 12.9022,23.803 12.9078,23.7952 L12.9118,23.7812 L12.8777,23.1665 C12.8753,23.1546 12.8674,23.147 12.8584,23.1453 Z M12.143,23.1473 C12.1332,23.1424 12.1222,23.1453 12.1156,23.1526 L12.1099,23.1665 L12.0758,23.7812 C12.0751,23.7927 12.0828,23.8019 12.0926,23.8046 L12.1083,23.8032 L12.3092,23.7105 L12.3186,23.7024 L12.3225,23.6906 L12.3404,23.2611 L12.3372,23.2485 L12.3278,23.2397 L12.143,23.1473 Z" id="MingCute" fill-rule="nonzero"></path>
                <path d="M4.29295,4.79299 C6.04604,3.03988 8.43759,2.55018 10.3163,3.17642 C11.2625,3.49182 12.1031,4.10232 12.6183,5.00397 C12.7117,5.16742 12.7927,5.33742 12.8609,5.51336 C14.246,4.77686 15.7773,4.67966 17.1091,5.19187 C19.2397,6.01134 20.5651,8.27436 19.9807,11.1964 C19.9224,11.4877 19.7377,11.738 19.4764,11.8795 C19.2525143,12.0007857 18.9923347,12.0313367 18.7488222,11.9681303 L18.6287,11.9287 L13.9047,10.0391 C14.5403,12.3076 14.6051,14.6175 14.4983,16.4339 C14.4549,17.1713667 14.3826556,17.8365222 14.3054481,18.3963 L14.2274709,18.9197272 L14.2274709,18.9197272 L14.1889,19.1528 C14.1265,19.518 14.0599,19.8831 13.9702,20.2427 C13.868175,20.6508 13.5235618,20.9472271 13.1133649,20.9937976 L13,21.0002 L9.50002,21.0002 C9.15344,21.0002 8.83158,20.8207 8.64937,20.5259 C8.39064857,20.1072571 8.53767204,19.6794306 8.72079391,19.2669466 L8.8853697,18.9005158 C8.90252097,18.8604087 8.91892429,18.8205286 8.93421,18.7809 L9.07277376,18.4068473 C9.2410721,17.9337222 9.42826333,17.3354556 9.58868,16.6479 C9.911044,15.26638 10.1154944,13.5667302 9.87239346,11.8129438 L9.81333,11.4364 L5.28033,14.3482 C4.99341,14.5326 4.63233,14.5579 4.32244,14.4156 C4.01255,14.2732 3.79656,13.9828 3.74945,13.645 C3.37379,10.9518 4.46575,8.55376 6.31946,7.29261 L6.44861375,7.20738875 L6.44861375,7.20738875 L6.57971,7.12612 L4.66372,6.44183 C4.3409,6.32654 4.09963,6.05392 4.02443,5.71948 C3.94922,5.38504 4.05056,5.03538 4.29295,4.79299 Z M11.8446,10.1315 L11.6128,10.2805 C12.2365,12.8114 11.9641,15.2694 11.5364,17.1024 C11.3651,17.8363 11.1667,18.4797 10.9843,19.0002 L12.1851,19.0002 L12.2542184,18.5933096 L12.2542184,18.5933096 L12.3253432,18.1144048 C12.337092,18.02898 12.34872,17.94085 12.360125,17.8501625 L12.4250614,17.2765291 C12.455374,16.975549 12.48184,16.65421 12.5017,16.3165 C12.6095,14.485 12.5192,12.2331 11.8446,10.1315 Z M10.4813,8.63018 C9.34807,8.18064 8.2744,8.38157 7.44446,8.94621 C6.68228133,9.464742 6.06809573,10.3315878 5.80877234,11.4259544 L5.75871,11.6639 L10.4813,8.63018 Z M13.256,7.62555 L18.1124,9.5681 C18.0241,8.2265 17.2672,7.39552 16.3911,7.05856 C15.5068,6.71844 14.327,6.81363 13.256,7.62555 Z M7.18064,5.21702 L11.0994,6.61658 C11.0588,6.37552 10.981,6.16985 10.8818,5.99624 C10.647,5.58539 10.2376,5.25839 9.68382,5.07378 C8.97309,4.83687 8.06666,4.85469 7.18064,5.21702 Z" id="形状" fill="#09244B"></path>
            </g>
        </g>
    </g>
</svg>

<svg xmlns="http://www.w3.org/2000/svg" width="24" height="24"><g fill="none" fill-rule="evenodd"><path d="M24 0v24H0V0h24ZM12.594 23.258l-.012.002-.071.035-.02.004-.014-.004-.071-.036c-.01-.003-.019 0-.024.006l-.004.01-.017.428.005.02.01.013.104.074.015.004.012-.004.104-.074.012-.016.004-.017-.017-.427c-.002-.01-.009-.017-.016-.018Zm.264-.113-.014.002-.184.093-.01.01-.003.011.018.43.005.012.008.008.201.092c.012.004.023 0 .029-.008l.004-.014-.034-.614c-.003-.012-.01-.02-.02-.022Zm-.715.002a.023.023 0 0 0-.027.006l-.006.014-.034.614c0 .012.007.02.017.024l.015-.002.201-.093.01-.008.003-.011.018-.43-.003-.012-.01-.01-.184-.092Z"/><path fill="#09244B" d="M4.293 4.793C6.046 3.04 8.438 2.55 10.316 3.176c.946.316 1.787.926 2.302 1.828.094.163.175.333.243.51 1.385-.737 2.916-.834 4.248-.322 2.13.82 3.456 3.082 2.872 6.004a1 1 0 0 1-1.232.772l-.12-.04-4.724-1.889c.635 2.269.7 4.579.593 6.395a25.3 25.3 0 0 1-.193 1.962l-.078.524-.038.233c-.062.365-.13.73-.219 1.09a1 1 0 0 1-.857.75L13 21H9.5a1 1 0 0 1-.85-.474c-.26-.419-.112-.847.07-1.26l.165-.365c.018-.04.034-.08.05-.12l.138-.374a16.39 16.39 0 0 0 .516-1.76c.322-1.38.526-3.08.283-4.834l-.059-.377-4.533 2.912a1 1 0 0 1-1.53-.703c-.376-2.693.716-5.091 2.57-6.352l.129-.086.13-.08-1.915-.685a1 1 0 0 1-.371-1.649Zm7.552 5.339-.232.149c.624 2.53.351 4.988-.077 6.821-.17.734-.37 1.378-.552 1.898h1.201l.07-.407.07-.479c.012-.085.024-.173.035-.264l.065-.573c.03-.301.057-.623.077-.96.107-1.832.017-4.084-.657-6.185ZM10.48 8.63c-1.133-.45-2.207-.248-3.037.316-.762.519-1.376 1.386-1.635 2.48l-.05.238L10.48 8.63Zm2.775-1.004 4.856 1.942c-.088-1.341-.845-2.172-1.72-2.51-.885-.34-2.065-.244-3.136.568ZM7.181 5.217l3.918 1.4a1.866 1.866 0 0 0-.217-.62c-.235-.412-.644-.739-1.198-.923-.71-.237-1.617-.22-2.503.143Z"/></g></svg>
